X:5652
T:Galway Hornpipe
R:hornpipe
N:Bar 4 of 2nd part also played |(3ABA ^GB A2 (3ABc|
Z:id:hn-hornpipe-48
M:C|
L:1/8
K:D
FE|D2FA dAFD|CDEF GEFE|D2FA dcdf|(3efe  (3dcB  (3ABA  (3GFE|
D2FA dAFD|CDEF G2FG|AdcB AGFE|(3DED CE D2:|
|:de|fefg fedc|BABc B2cd|edef edcB|(3ABA ce a2 (3ABc|
dcde fdAF|GFGA BdcB|AdcB AGFE|(3DED CE D2:|
